X:43
T:Over the Ocean
S:Peoples/Molloy/Brady
R:Jig
M:6/8
I:speed 300
K:G
|:~B3 BAG | BdB ~A3 | GED G2A | ~B3 AGA |
~B3 BAG | BdB ~A3 | GED G2A |[1 BGF G3:| [2 BGF GBd |
|:ege dBd | ege dBd | ded dBd | gfe dBA |
 G2A B2d | ege dBA | GED G2A | [1 BGF GBd :| [2 BGF G3 |
